images/logo/money.svg

<?xml version="1.0" encoding="UTF-8"?>
<svg xmlns="http://www.w3.org/2000/svg" xmlns:xlink="http://www.w3.org/1999/xlink" width="18pt" height="15pt" viewBox="0 0 18 15" version="1.1">
<g id="surface1">
<path style=" stroke:none;fill-rule:nonzero;fill:rgb(0%,0%,0%);fill-opacity:1;" d="M 17.46875 1.59375 C 16.378906 1.117188 15.289062 0.9375 14.195312 0.9375 C 10.730469 0.9375 7.269531 2.765625 3.804688 2.765625 C 2.933594 2.765625 2.066406 2.648438 1.199219 2.363281 C 1.101562 2.328125 1.003906 2.3125 0.90625 2.3125 C 0.421875 2.3125 0 2.703125 0 3.246094 L 0 12.542969 C 0 12.910156 0.203125 13.261719 0.53125 13.402344 C 1.621094 13.882812 2.710938 14.0625 3.804688 14.0625 C 7.269531 14.0625 10.730469 12.234375 14.195312 12.234375 C 15.066406 12.234375 15.933594 12.351562 16.800781 12.636719 C 16.898438 12.671875 16.996094 12.683594 17.09375 12.683594 C 17.578125 12.683594 18 12.296875 18 11.753906 L 18 2.457031 C 18 2.089844 17.796875 1.738281 17.46875 1.59375 Z M 1.351562 3.875 C 1.914062 4.019531 2.507812 4.09375 3.113281 4.136719 C 2.949219 4.996094 2.222656 5.644531 1.351562 5.644531 Z M 1.351562 12.222656 L 1.351562 10.824219 C 2.316406 10.824219 3.097656 11.621094 3.140625 12.621094 C 2.507812 12.570312 1.914062 12.4375 1.351562 12.222656 Z M 9 10.3125 C 7.757812 10.3125 6.75 9.054688 6.75 7.5 C 6.75 5.945312 7.757812 4.6875 9 4.6875 C 10.242188 4.6875 11.25 5.945312 11.25 7.5 C 11.25 9.054688 10.242188 10.3125 9 10.3125 Z M 16.648438 11.125 C 16.15625 10.996094 15.644531 10.925781 15.121094 10.878906 C 15.289062 10.113281 15.894531 9.535156 16.648438 9.433594 Z M 16.648438 4.210938 C 15.78125 4.09375 15.105469 3.339844 15.082031 2.40625 C 15.628906 2.46875 16.152344 2.589844 16.648438 2.777344 Z M 16.648438 4.210938 "/>
</g>
</svg>

<?xml version="1.0"?>
<svg width="18" height="15" xmlns="http://www.w3.org/2000/svg" xmlns:svg="http://www.w3.org/2000/svg">

 <g class="layer">
  <title>Layer 1</title>
  <g id="surface1">
   <path d="m17.46875,1.59375c-1.08984,-0.47656 -2.17969,-0.65625 -3.27344,-0.65625c-3.46484,0 -6.92578,1.82813 -10.39062,1.82813c-0.8711,0 -1.73828,-0.11719 -2.60547,-0.40235c-0.09766,-0.03515 -0.19531,-0.05078 -0.29297,-0.05078c-0.48437,0 -0.90625,0.39063 -0.90625,0.93359l0,9.29688c0,0.36719 0.20313,0.71875 0.53125,0.85937c1.08984,0.48047 2.17969,0.66016 3.27344,0.66016c3.46484,0 6.92578,-1.82812 10.39062,-1.82812c0.8711,0 1.73828,0.11718 2.60547,0.40234c0.09766,0.03516 0.19531,0.04687 0.29297,0.04687c0.48438,0 0.90625,-0.38671 0.90625,-0.92968l0,-9.29688c0,-0.36719 -0.20312,-0.71875 -0.53125,-0.86328zm-16.11719,2.28125c0.5625,0.14453 1.15625,0.21875 1.76172,0.26172c-0.16406,0.85937 -0.89062,1.50781 -1.76172,1.50781l0,-1.76953zm0,8.34766l0,-1.39844c0.96485,0 1.7461,0.79687 1.78907,1.79687c-0.63282,-0.05078 -1.22657,-0.18359 -1.78907,-0.39843zm7.64844,-1.91016c-1.24219,0 -2.25,-1.25781 -2.25,-2.8125c0,-1.55469 1.00781,-2.8125 2.25,-2.8125c1.24219,0 2.25,1.25781 2.25,2.8125c0,1.55469 -1.00781,2.8125 -2.25,2.8125zm7.64844,0.8125c-0.49219,-0.12891 -1.00391,-0.19922 -1.52735,-0.24609c0.16797,-0.76563 0.77344,-1.34375 1.52735,-1.44532l0,1.69141zm0,-6.91406c-0.86719,-0.11719 -1.54297,-0.8711 -1.56641,-1.80469c0.54688,0.0625 1.07031,0.18359 1.56641,0.37109l0,1.4336zm0,0" fill="#0065fc" fill-rule="nonzero" id="svg_1"/>
  </g>
 </g>
</svg>
